X: 8
T: February Reels #1
T: (Needs fixing)
R: reel
M: 4/4
L: 1/8
K: F#m
EFFA Bcef|ecBc eaga|ef (3fff fecA|ABcA BAFE|
EFFA BccB|caga effg|aAgA fAeA|ABcA BA E2:|
bffb afed|cAce (3ffe ce|bf (3fff afed|cABG Acea|
bffb afed|cAce fefg|aAgA fAeA|ABcA BAFE:|

%%newpage

